X: 1
T: Air For Sophie Delizio
M: 4/4
L: 1/8
R: reel
K: Amin
AG |: EAAB c2 de | fedc B2 cd | ecAc dBGE | FAcd B2 cB |
EAAB c2 de | fedc B2 cd | ecAc d2 BG | EAA^G A2 cd :|
|: ecAc e2 de | fefa e2 cd | ecAE EAcA | ^GABc B2 cd |
ecAc e2 de | fea^g e2 cd | ecAc d2 BG | EAA^G A2 cd |
eaa^g aged | cdec d2 cd | eAAc EAcA | Beef e2 cd |
eaa^g aged | cffc B2 cd | edcB c2 AG | EAA^G A2 cd |
eaa^g aged | cdeg d2 cd | eAAE EAcA | Beef eddB |
EAAB c2 BA | Beef e2 cd | ecAc d2 B2 | EAA^G A2 A2||
